X: 3
T:Amarillis
M:4/4
L:1/8
Q:160
C:Playford
S:Manuscript
O:Playford
A:English
K:G
d3 c B2 AG| A2 D2 G4|dedc BABG| A2 D2 G4| d3 c B2 AG| A2 D2 G4| dedc BABG| A2 D2 G4:|
|: A3 B c2 B2| c2 d2 e3 f| g2 f2 ga f2| e4 d4|g3 f e2 d2| ed c2 B3 c| d2 edcB A2| G4 G4 :|

